src/assets/svg/help-onboard.svg

<svg fill="none" height="40" viewBox="0 0 120 40" width="120" xmlns="http://www.w3.org/2000/svg" xmlns:xlink="http://www.w3.org/1999/xlink"><clipPath id="a"><path d="m0 0h119.664v40h-119.664z"/></clipPath><g clip-path="url(#a)"><path d="m110.135.00013h-100.60032c-.3667 0-.729 0-1.09473.002-.30615.002-.60986.00781-.91895.0127-.67149.0079018-1.34139.0669763-2.0039.17671-.66158.112123-1.30243.323506-1.90088.627-.59772.30606-1.14387.70376-1.61865 1.17866-.47727.47357-.87511 1.02095-1.17822 1.62109-.30395.59895-.514709 1.24078-.625 1.90332-.1113391.66171-.1712516 1.33104-.1792 2.002-.00928.3066-.01026.61422-.01515.92086v23.11423c.00489.3105.00587.6113.01515.9219.0079508.671.0678634 1.3403.1792 2.0019.109986.663.320758 1.3052.625 1.9043.30298.5982.70087 1.1434 1.17822 1.6143.47297.477 1.01948.875 1.61865 1.1787.59845.3043 1.23923.517 1.90088.6308.66262.1089 1.33246.168 2.0039.1768.30909.0068.6128.0107.91895.0107.36572.002.72805.002 1.09473.002h100.60032c.359 0 .724 0 1.084-.002.304 0 .617-.0039.922-.0107.67-.0083 1.338-.0674 2-.1768.663-.1146 1.307-.3272 1.908-.6308.598-.3039 1.144-.7018 1.617-1.1787.476-.4727.875-1.0175 1.182-1.6143.302-.5996.51-1.2417.619-1.9043.111-.6617.173-1.3309.185-2.0019.004-.3106.004-.6114.004-.9219.008-.3633.008-.7246.008-1.0938v-20.92864c0-.36621 0-.72949-.008-1.09179 0-.30664 0-.61426-.004-.9209-.012-.67102-.074-1.3402-.185-2.002-.109-.66216-.318-1.30394-.619-1.90332-.618-1.20292-1.596-2.18209-2.799-2.7998-.601-.302753-1.245-.51408-1.908-.627-.661-.1102172-1.33-.1693122-2-.17676-.305-.00488-.618-.01074-.922-.01269-.36-.002-.725-.002-1.084-.002z" fill="#60ccc3"/><path d="m8.44291 39.125c-.30468 0-.602-.0039-.90429-.0107-.62621-.0082-1.25097-.0627-1.86914-.1631-.57641-.0993-1.13479-.2839-1.65674-.5479-.51715-.2618-.98884-.605-1.397-1.0166-.41406-.4067-.75878-.8785-1.02051-1.3965-.26461-.5214-.44773-1.0803-.543-1.6572-.102872-.6199-.158532-1.2467-.166496-1.875-.00634-.2109-.01464-.9131-.01464-.9131v-23.10056s.00884-.69141.01469-.89454c.007626-.62732.062962-1.25315.165526-1.87207.09544-.57848.27871-1.13898.54346-1.6621.26077-.51769.60358-.98977 1.01514-1.39795.41111-.41206.88431-.75708 1.40234-1.02247.52075-.26312 1.07808-.44648 1.65332-.54394.6202-.101434 1.24712-.156274 1.87551-.16406l.90232-.01221h102.7686l.913.0127c.623.007399 1.244.06175 1.858.16259.582.09869 1.145.28333 1.671.54785 1.038.53485 1.883 1.38102 2.415 2.41993.261.51951.441 1.07544.536 1.64892.103.624.161 1.25475.173 1.88721.003.2832.003.5874.003.89014.008.375.008.73193.008 1.09179v20.92867c0 .3633 0 .7178-.008 1.0752 0 .3252 0 .6231-.004.9297-.011.6212-.068 1.2407-.171 1.8535-.093.5811-.275 1.1443-.54 1.67-.263.5124-.606.9801-1.015 1.3857-.409.4138-.881.759-1.4 1.0225-.525.266-1.087.4513-1.668.5498-.618.101-1.242.1555-1.869.1631-.293.0068-.599.0107-.897.0107l-1.084.002z" fill="#fff"/><g fill="#000"><path d="m26.3168 13.4539-2.6895.0102-.0176-5.20311-.9052.00344.0203 5.99847 3.5947-.0136zm2.5561.8648c1.0987-.0042 1.703-.6349 1.8542-1.3914l-.8569.0033c-.1304.4136-.4723.6698-.9821.6717-.6987.0027-1.1313-.5494-1.134-1.3712l-.0004-.0967 3.0278-.0115-.0015-.4394c-.0043-1.292-.7324-2.15937-1.9584-2.15471-1.2217.00464-1.9571.85561-1.9528 2.12561l.0016.4878c.0046 1.3491.7765 2.1811 2.0025 2.1765zm-1.1214-2.8347v-.0131c-.0023-.6856.4177-1.2321 1.0769-1.2346.646-.0025 1.0741.5364 1.0764 1.2264v.0132zm4.419-1.88884-.6416.00244.0024.7207.6328-.0024.0088 2.6103c.0032.9229.2814 1.3349 1.3976 1.3307.1802-.0007.3559-.019.4306-.0324l-.0024-.69c-.0615.0047-.1318.0093-.2109.0096-.5405.0021-.7299-.1378-.7317-.6652l-.0087-2.5664.9097-.0034-.0025-.72072-.9096.00346-.0039-1.14257-.8745.00332zm8.4242-.03201-.8877.00337.0096 2.82568c.0024.7075-.4402 1.1003-1.0554 1.1026-.5581.0022-1.0379-.2465-1.0408-1.0815l-.0096-2.83881-.8876.00337.0104 3.08494c.0036 1.0723.6734 1.619 1.627 1.6154.7471-.0028 1.181-.3429 1.338-.7082l.0351-.0001.0022.6284.8745-.0033zm1.1076 1.33615c.0028.8437.7025 1.1223 1.5556 1.2949.6288.1206 1.1609.2109 1.1626.7075.0012.3647-.2966.6735-.9514.6759-.5756.0022-.9193-.2601-.9778-.6554l-.8657.0033c.0028.8305.7077 1.342 1.7843 1.3379 1.1382-.0043 1.8791-.5433 1.8759-1.4749-.003-.8877-.6982-1.1399-1.5644-1.2904-.5277-.0947-1.1608-.189-1.1625-.69-.0014-.4174.3625-.6517.8767-.6537.668-.0025.8802.379.9077.7129l.8086-.0031c-.0027-.7998-.598-1.3952-1.6922-1.39104-.9185.00349-1.7608.43296-1.7574 1.42614zm6.4183 3.2671.8877-.0034-.0095-2.7861c-.0021-.6196.3302-1.1394 1.0641-1.1422.6196-.0024 1.0602.3563 1.0628 1.1122l.0095 2.8081.8877-.0034-.0101-2.9751c-.0038-1.1294-.7002-1.7288-1.6494-1.72519-.7558.00287-1.1763.40877-1.3379.71259l-.0308.0001-.0078-2.31587-.8877.00338zm6.926.0528c1.0986-.0042 1.7029-.6349 1.8542-1.3913l-.857.0032c-.1304.4136-.4723.6698-.9821.6717-.6987.0027-1.1312-.5494-1.134-1.3712l-.0003-.0966 3.0278-.0116-.0015-.4394c-.0044-1.292-.7324-2.15935-1.9585-2.15469-1.2217.00464-1.9571.85559-1.9528 2.12559l.0017.4878c.0045 1.3491.7764 2.1811 2.0025 2.1765zm-1.1214-2.8346-.0001-.0132c-.0023-.6856.4177-1.2321 1.0769-1.2346.646-.0024 1.0741.5365 1.0764 1.2264l.0001.0132zm4.1533 2.744.8833-.0034-.0213-6.3149-.8833.00336zm4.4343.0534c1.0766-.0041 1.8166-.8199 1.812-2.1866l-.0015-.4174c-.0046-1.3799-.7632-2.17245-1.8003-2.16851-.624.00237-1.0976.3074-1.3554.74781l-.0307.0001-.0023-.67232-.8613.00327.021 6.22265.8877-.0034-.0075-2.2236.0308-.0001c.2519.4165.7098.7004 1.3075.6981zm-.1695-.7464c-.7295.0028-1.1797-.5756-1.1828-1.4853l-.0011-.334c-.003-.8832.4389-1.465 1.1552-1.4677.6943-.0027 1.1092.5363 1.1124 1.4635l.0011.3296c.0033.9712-.4344 1.4914-1.0848 1.4939zm8.5383-3.98757-.9448.00359-1.1607 3.73098-.0308.0001-1.1771-3.72207-.9844.00374 1.6901 4.67383-.0608.2199c-.1127.4487-.3272.7044-.8853.7065-.1098.0004-.2813-.0077-.3516-.0206l.0023.6899c.1143.0172.3297.0383.5231.0376 1.0371-.004 1.3952-.6557 1.6696-1.3907l.1176-.3212c.0043-.0176 1.5928-4.61157 1.5928-4.61157zm2.4826-.08853c-1.3227.00502-2.0358.9482-2.0316 2.2006l.0013.3867c.0044 1.2876.7238 2.2077 2.0465 2.2027 1.3184-.005 2.0228-.9305 2.0184-2.2181l-.0013-.3911c-.0042-1.2525-.7193-2.1858-2.0333-2.1808zm-.0019.7295c.7515-.0029 1.1402.5889 1.1432 1.4766l.0012.356c.003.8789-.3773 1.4868-1.1332 1.4896-.7514.0029-1.1446-.6064-1.1476-1.481l-.0012-.3559c-.0029-.8833.3861-1.4824 1.1376-1.4853zm6.9323-.67674-.8877.00337.0096 2.82567c.0024.7075-.4401 1.1003-1.0554 1.1027-.5581.0021-1.0379-.2466-1.0407-1.0816l-.0096-2.8388-.8877.00337.0104 3.08493c.0036 1.0723.6734 1.619 1.6271 1.6154.747-.0028 1.1809-.3428 1.3379-.7082l.0352-.0001.0021.6284.8745-.0033z"/><path d="m24.4297 23.9531c0-2.2734 1.1875-3.4375 2.75-3.4375 1.5703 0 2.75 1.1641 2.75 3.4375v1.5157c0 2.2812-1.1797 3.3515-2.75 3.3515-1.5625 0-2.75-1.0703-2.75-3.3515zm-1.625 1.5157c0 3.0156 1.6875 4.75 4.3594 4.75 2.6797 0 4.3906-1.7344 4.3906-4.75v-1.5c0-3.0313-1.6875-4.8516-4.3594-4.8516s-4.3906 1.8203-4.3906 4.8516zm10.2953 4.5312h1.5703v-4.9531c0-1.1016.6016-2.0235 1.8985-2.0235 1.0937 0 1.8828.6407 1.8828 1.9844v4.9922h1.5703v-5.2891c0-2.0078-1.2266-3.0781-2.9141-3.0781-1.3515 0-2.1094.7188-2.3984 1.2578h-.0547v-1.125h-1.5547zm12.7406.125c1.9532 0 3.2344-1.4531 3.2344-3.8594v-.7812c0-2.4844-1.3203-3.8438-3.2266-3.8438-1.0546 0-1.9921.5391-2.3984 1.2735h-.0547v-4.1407h-1.5781v11.2266h1.5312v-1.25h.0547c.461.8438 1.2657 1.375 2.4375 1.375zm-.3203-1.3281c-1.3359 0-2.1406-.9141-2.1406-2.6172v-.6094c0-1.6953.8125-2.6015 2.1406-2.6015 1.1485 0 1.9531.914 1.9531 2.6015v.625c0 1.6797-.7968 2.6016-1.9531 2.6016zm8.3969-7.1719c-2.3516 0-3.625 1.6719-3.625 3.8984v.6875c0 2.2891 1.2734 3.9297 3.625 3.9297 2.3437 0 3.6015-1.6406 3.6015-3.9297v-.6953c0-2.2265-1.2656-3.8906-3.6015-3.8906zm-.0078 1.2969c1.3359 0 2.0234 1.0547 2.0234 2.6328v.6328c0 1.5625-.6797 2.6406-2.0234 2.6406-1.336 0-2.0313-1.0859-2.0313-2.6406v-.6328c0-1.5703.6953-2.6328 2.0313-2.6328zm9.7328 6.0625h.0547v1.0156h1.5078v-5.6406c0-1.7969-1.3359-2.7266-3.1328-2.7266-2.1172 0-3.0703 1.125-3.1485 2.5391h1.4844c.0703-.7657.6328-1.2735 1.6172-1.2735 1.0313 0 1.6094.5469 1.6094 1.5469v.8047h-2.1172c-1.8906.0078-2.8984.9297-2.8984 2.3828 0 1.5234 1.0937 2.5 2.6875 2.5 1.2187 0 1.9531-.5078 2.3359-1.1484zm-1.875-.0938c-.8047 0-1.5547-.4297-1.5547-1.3359 0-.7109.4688-1.2109 1.5234-1.2109h1.8985v.9296c0 .9532-.8047 1.6172-1.8672 1.6172zm5.2484 1.1094h1.5938v-4.9688c0-1.1093.4609-1.9843 1.8828-1.9843.2656 0 .5547.0156.7031.0469v-1.4141c-.1641-.0235-.3515-.0391-.5547-.0391-1.1562 0-1.7734.6719-1.9922 1.1719h-.0546v-1.0469h-1.5782zm8.1235-8.3672c-2.0391 0-3.2422 1.5938-3.2422 3.875v.7344c0 2.3281 1.1406 3.875 3.2422 3.875 1.1093 0 1.9765-.5234 2.414-1.3672h.0469v1.25h1.5312v-11.2266h-1.5781v4.1485h-.0547c-.3984-.7422-1.2578-1.2891-2.3593-1.2891zm.3437 1.3281c1.2891 0 2.0859 1.0157 2.0859 2.6016v.6406c0 1.6641-.789 2.586-2.0703 2.586-1.164 0-2-.8594-2-2.5938v-.6328c0-1.7422.836-2.6016 1.9844-2.6016zm12.1453 7.0391v-10.6641h-1.5156c-.6797.3594-1.9531 1.1485-2.6094 1.6172v1.5703c.6094-.4218 2.0313-1.3125 2.4922-1.5625h.0391v9.0391zm1.7657-2.4531c0 .5547.4453 1.0078 1 1.0078.5546 0 1.0078-.4531 1.0078-1.0078 0-.5469-.4532-1-1.0078-1-.5547 0-1 .4531-1 1zm0-5.5157c0 .5547.4453 1 1 1 .5546 0 1.0078-.4453 1.0078-1 0-.5546-.4532-1-1.0078-1-.5547 0-1 .4454-1 1zm7.6875 7.9688v-10.6641h-1.5157c-.6797.3594-1.9531 1.1485-2.6093 1.6172v1.5703c.6093-.4218 2.0312-1.3125 2.4921-1.5625h.0391v9.0391z"/></g></g></svg>

<svg width="120" height="40" viewBox="0 0 120 40" fill="none" xmlns="http://www.w3.org/2000/svg">
<g clip-path="url(#clip0)">
<path d="M110.135 0.00013H9.53468C9.16798 0.00013 8.80568 0.00013 8.43995 0.00213C8.1338 0.00413 7.83009 0.00994 7.521 0.01483C6.84951 0.0227318 6.17961 0.0818063 5.5171 0.19154C4.85552 0.303663 4.21467 0.515046 3.61622 0.81854C3.0185 1.1246 2.47235 1.5223 1.99757 1.9972C1.5203 2.47077 1.12246 3.01815 0.81935 3.61829C0.5154 4.21724 0.304641 4.85907 0.19435 5.52161C0.0830109 6.18332 0.0230984 6.85265 0.01515 7.52361C0.00587 7.83021 0.00489 8.13783 0 8.44447V31.5587C0.00489 31.8692 0.00587 32.17 0.01515 32.4806C0.0231008 33.1516 0.0830134 33.8209 0.19435 34.4825C0.304336 35.1455 0.515108 35.7877 0.81935 36.3868C1.12233 36.985 1.52022 37.5302 1.99757 38.0011C2.47054 38.4781 3.01705 38.8761 3.61622 39.1798C4.21467 39.4841 4.85545 39.6968 5.5171 39.8106C6.17972 39.9195 6.84956 39.9786 7.521 39.9874C7.83009 39.9942 8.1338 39.9981 8.43995 39.9981C8.80567 40.0001 9.168 40.0001 9.53468 40.0001H110.135C110.494 40.0001 110.859 40.0001 111.219 39.9981C111.523 39.9981 111.836 39.9942 112.141 39.9874C112.811 39.9791 113.479 39.92 114.141 39.8106C114.804 39.696 115.448 39.4834 116.049 39.1798C116.647 38.8759 117.193 38.478 117.666 38.0011C118.142 37.5284 118.541 36.9836 118.848 36.3868C119.15 35.7872 119.358 35.1451 119.467 34.4825C119.578 33.8208 119.64 33.1516 119.652 32.4806C119.656 32.17 119.656 31.8692 119.656 31.5587C119.664 31.1954 119.664 30.8341 119.664 30.4649V9.53626C119.664 9.17005 119.664 8.80677 119.656 8.44447C119.656 8.13783 119.656 7.83021 119.652 7.52357C119.64 6.85255 119.578 6.18337 119.467 5.52157C119.358 4.85941 119.149 4.21763 118.848 3.61825C118.23 2.41533 117.252 1.43616 116.049 0.81845C115.448 0.515697 114.804 0.30437 114.141 0.19145C113.48 0.0812328 112.811 0.0221378 112.141 0.01469C111.836 0.00981 111.523 0.00395 111.219 0.002C110.859 0 110.494 0 110.135 0V0.00013Z" fill="#60CCC3"/>
<path d="M8.44291 39.125C8.13823 39.125 7.84091 39.1211 7.53862 39.1143C6.91241 39.1061 6.28765 39.0516 5.66948 38.9512C5.09307 38.8519 4.53469 38.6673 4.01274 38.4033C3.49559 38.1415 3.0239 37.7983 2.61574 37.3867C2.20168 36.98 1.85696 36.5082 1.59523 35.9902C1.33062 35.4688 1.1475 34.9099 1.05223 34.333C0.949358 33.7131 0.893698 33.0863 0.885734 32.458C0.879394 32.2471 0.871094 31.5449 0.871094 31.5449V8.44434C0.871094 8.44434 0.879934 7.75293 0.885784 7.5498C0.89341 6.92248 0.948746 6.29665 1.05131 5.67773C1.14675 5.09925 1.33002 4.53875 1.59477 4.01563C1.85554 3.49794 2.19835 3.02586 2.60991 2.61768C3.02102 2.20562 3.49422 1.8606 4.01225 1.59521C4.533 1.33209 5.09033 1.14873 5.66557 1.05127C6.28577 0.949836 6.91269 0.894996 7.54108 0.88721L8.4434 0.875H111.212L112.125 0.8877C112.748 0.895099 113.369 0.94945 113.983 1.05029C114.565 1.14898 115.128 1.33362 115.654 1.59814C116.692 2.13299 117.537 2.97916 118.069 4.01807C118.33 4.53758 118.51 5.09351 118.605 5.66699C118.708 6.29099 118.766 6.92174 118.778 7.5542C118.781 7.8374 118.781 8.1416 118.781 8.44434C118.789 8.81934 118.789 9.17627 118.789 9.53613V30.4648C118.789 30.8281 118.789 31.1826 118.781 31.54C118.781 31.8652 118.781 32.1631 118.777 32.4697C118.766 33.0909 118.709 33.7104 118.606 34.3232C118.513 34.9043 118.331 35.4675 118.066 35.9932C117.803 36.5056 117.46 36.9733 117.051 37.3789C116.642 37.7927 116.17 38.1379 115.651 38.4014C115.126 38.6674 114.564 38.8527 113.983 38.9512C113.365 39.0522 112.741 39.1067 112.114 39.1143C111.821 39.1211 111.515 39.125 111.217 39.125L110.133 39.127L8.44291 39.125Z" fill="white"/>
<path d="M26.3168 13.4539L23.6273 13.4641L23.6097 8.26099L22.7045 8.26443L22.7248 14.2629L26.3195 14.2493L26.3168 13.4539ZM28.8729 14.3187C29.9716 14.3145 30.5759 13.6838 30.7271 12.9273L29.8702 12.9306C29.7398 13.3442 29.3979 13.6004 28.8881 13.6023C28.1894 13.605 27.7568 13.0529 27.7541 12.2311L27.7537 12.1344L30.7815 12.1229L30.78 11.6835C30.7757 10.3915 30.0476 9.52413 28.8216 9.52879C27.5999 9.53343 26.8645 10.3844 26.8688 11.6544L26.8704 12.1422C26.875 13.4913 27.6469 14.3233 28.8729 14.3187ZM27.7515 11.484L27.7515 11.4709C27.7492 10.7853 28.1692 10.2388 28.8284 10.2363C29.4744 10.2338 29.9025 10.7727 29.9048 11.4627L29.9048 11.4759L27.7515 11.484ZM32.1705 9.59516L31.5289 9.5976L31.5313 10.3183L32.1641 10.3159L32.1729 12.9262C32.1761 13.8491 32.4543 14.2611 33.5705 14.2569C33.7507 14.2562 33.9264 14.2379 34.0011 14.2245L33.9987 13.5345C33.9372 13.5392 33.8669 13.5438 33.7878 13.5441C33.2473 13.5462 33.0579 13.4063 33.0561 12.8789L33.0474 10.3125L33.9571 10.3091L33.9546 9.58838L33.045 9.59184L33.0411 8.44927L32.1666 8.45259L32.1705 9.59516ZM40.5947 9.56315L39.707 9.56652L39.7166 12.3922C39.719 13.0997 39.2764 13.4925 38.6612 13.4948C38.1031 13.497 37.6233 13.2483 37.6204 12.4133L37.6108 9.57449L36.7232 9.57786L36.7336 12.6628C36.7372 13.7351 37.407 14.2818 38.3606 14.2782C39.1077 14.2754 39.5416 13.9353 39.6986 13.57L39.7337 13.5699L39.7359 14.1983L40.6104 14.195L40.5947 9.56315ZM41.7023 10.8993C41.7051 11.743 42.4048 12.0216 43.2579 12.1942C43.8867 12.3148 44.4188 12.4051 44.4205 12.9017C44.4217 13.2664 44.1239 13.5752 43.4691 13.5776C42.8935 13.5798 42.5498 13.3175 42.4913 12.9222L41.6256 12.9255C41.6284 13.756 42.3333 14.2675 43.4099 14.2634C44.5481 14.2591 45.289 13.7201 45.2858 12.7885C45.2828 11.9008 44.5876 11.6486 43.7214 11.4981C43.1937 11.4034 42.5606 11.3091 42.5589 10.8081C42.5575 10.3907 42.9214 10.1564 43.4356 10.1544C44.1036 10.1519 44.3158 10.5334 44.3433 10.8673L45.1519 10.8642C45.1492 10.0644 44.5539 9.469 43.4597 9.47316C42.5412 9.47665 41.6989 9.90612 41.7023 10.8993ZM48.1206 14.1664L49.0083 14.163L48.9988 11.3769C48.9967 10.7573 49.329 10.2375 50.0629 10.2347C50.6825 10.2323 51.1231 10.591 51.1257 11.3469L51.1352 14.155L52.0229 14.1516L52.0128 11.1765C52.009 10.0471 51.3126 9.4477 50.3634 9.45131C49.6076 9.45418 49.1871 9.86008 49.0255 10.1639L48.9947 10.164L48.9869 7.84813L48.0992 7.85151L48.1206 14.1664ZM55.0466 14.2192C56.1452 14.215 56.7495 13.5843 56.9008 12.8279L56.0438 12.8311C55.9134 13.2447 55.5715 13.5009 55.0617 13.5028C54.363 13.5055 53.9305 12.9534 53.9277 12.1316L53.9274 12.035L56.9552 12.0234L56.9537 11.584C56.9493 10.292 56.2213 9.42465 54.9952 9.42931C53.7735 9.43395 53.0381 10.2849 53.0424 11.5549L53.0441 12.0427C53.0486 13.3918 53.8205 14.2238 55.0466 14.2192ZM53.9252 11.3846L53.9251 11.3714C53.9228 10.6858 54.3428 10.1393 55.002 10.1368C55.648 10.1344 56.0761 10.6733 56.0784 11.3632L56.0785 11.3764L53.9252 11.3846ZM58.0785 14.1286L58.9618 14.1252L58.9405 7.8103L58.0572 7.81366L58.0785 14.1286ZM62.5128 14.182C63.5894 14.1779 64.3294 13.3621 64.3248 11.9954L64.3233 11.578C64.3187 10.1981 63.5601 9.40555 62.523 9.40949C61.899 9.41186 61.4254 9.71689 61.1676 10.1573L61.1369 10.1574L61.1346 9.48508L60.2733 9.48835L60.2943 15.711L61.182 15.7076L61.1745 13.484L61.2053 13.4839C61.4572 13.9004 61.9151 14.1843 62.5128 14.182ZM62.3433 13.4356C61.6138 13.4384 61.1636 12.86 61.1605 11.9503L61.1594 11.6163C61.1564 10.7331 61.5983 10.1513 62.3146 10.1486C63.0089 10.1459 63.4238 10.6849 63.427 11.6121L63.4281 11.9417C63.4314 12.9129 62.9937 13.4331 62.3433 13.4356ZM70.8816 9.44803L69.9368 9.45162L68.7761 13.1826L68.7453 13.1827L67.5682 9.46063L66.5838 9.46437L68.2739 14.1382L68.2131 14.3581C68.1004 14.8068 67.8859 15.0625 67.3278 15.0646C67.218 15.065 67.0465 15.0569 66.9762 15.044L66.9785 15.7339C67.0928 15.7511 67.3082 15.7722 67.5016 15.7715C68.5387 15.7675 68.8968 15.1158 69.1712 14.3808L69.2888 14.0596C69.2931 14.042 70.8816 9.44803 70.8816 9.44803ZM73.3642 9.3595C72.0415 9.36452 71.3284 10.3077 71.3326 11.5601L71.3339 11.9468C71.3383 13.2344 72.0577 14.1545 73.3804 14.1495C74.6988 14.1445 75.4032 13.219 75.3988 11.9314L75.3975 11.5403C75.3933 10.2878 74.6782 9.3545 73.3642 9.3595ZM73.3623 10.089C74.1138 10.0861 74.5025 10.6779 74.5055 11.5656L74.5067 11.9216C74.5097 12.8005 74.1294 13.4084 73.3735 13.4112C72.6221 13.4141 72.2289 12.8048 72.2259 11.9302L72.2247 11.5743C72.2218 10.691 72.6108 10.0919 73.3623 10.089ZM80.2946 9.41226L79.4069 9.41563L79.4165 12.2413C79.4189 12.9488 78.9764 13.3416 78.3611 13.344C77.803 13.3461 77.3232 13.0974 77.3204 12.2624L77.3108 9.4236L76.4231 9.42697L76.4335 12.5119C76.4371 13.5842 77.1069 14.1309 78.0606 14.1273C78.8076 14.1245 79.2415 13.7845 79.3985 13.4191L79.4337 13.419L79.4358 14.0474L80.3103 14.0441L80.2946 9.41226Z" fill="black"/>
<path d="M24.4297 23.9531C24.4297 21.6797 25.6172 20.5156 27.1797 20.5156C28.75 20.5156 29.9297 21.6797 29.9297 23.9531V25.4688C29.9297 27.75 28.75 28.8203 27.1797 28.8203C25.6172 28.8203 24.4297 27.75 24.4297 25.4688V23.9531ZM22.8047 25.4688C22.8047 28.4844 24.4922 30.2188 27.1641 30.2188C29.8438 30.2188 31.5547 28.4844 31.5547 25.4688V23.9688C31.5547 20.9375 29.8672 19.1172 27.1953 19.1172C24.5234 19.1172 22.8047 20.9375 22.8047 23.9688V25.4688ZM33.1 30H34.6703V25.0469C34.6703 23.9453 35.2719 23.0234 36.5688 23.0234C37.6625 23.0234 38.4516 23.6641 38.4516 25.0078V30H40.0219V24.7109C40.0219 22.7031 38.7953 21.6328 37.1078 21.6328C35.7563 21.6328 34.9984 22.3516 34.7094 22.8906H34.6547V21.7656H33.1V30ZM45.8406 30.125C47.7938 30.125 49.075 28.6719 49.075 26.2656V25.4844C49.075 23 47.7547 21.6406 45.8484 21.6406C44.7938 21.6406 43.8563 22.1797 43.45 22.9141H43.3953V18.7734H41.8172V30H43.3484V28.75H43.4031C43.8641 29.5938 44.6688 30.125 45.8406 30.125ZM45.5203 28.7969C44.1844 28.7969 43.3797 27.8828 43.3797 26.1797V25.5703C43.3797 23.875 44.1922 22.9688 45.5203 22.9688C46.6688 22.9688 47.4734 23.8828 47.4734 25.5703V26.1953C47.4734 27.875 46.6766 28.7969 45.5203 28.7969ZM53.9172 21.625C51.5656 21.625 50.2922 23.2969 50.2922 25.5234V26.2109C50.2922 28.5 51.5656 30.1406 53.9172 30.1406C56.2609 30.1406 57.5187 28.5 57.5187 26.2109V25.5156C57.5187 23.2891 56.2531 21.625 53.9172 21.625ZM53.9094 22.9219C55.2453 22.9219 55.9328 23.9766 55.9328 25.5547V26.1875C55.9328 27.75 55.2531 28.8281 53.9094 28.8281C52.5734 28.8281 51.8781 27.7422 51.8781 26.1875V25.5547C51.8781 23.9844 52.5734 22.9219 53.9094 22.9219ZM63.6422 28.9844H63.6969V30H65.2047V24.3594C65.2047 22.5625 63.8688 21.6328 62.0719 21.6328C59.9547 21.6328 59.0016 22.7578 58.9234 24.1719H60.4078C60.4781 23.4062 61.0406 22.8984 62.025 22.8984C63.0563 22.8984 63.6344 23.4453 63.6344 24.4453V25.25H61.5172C59.6266 25.2578 58.6188 26.1797 58.6188 27.6328C58.6188 29.1562 59.7125 30.1328 61.3063 30.1328C62.525 30.1328 63.2594 29.625 63.6422 28.9844ZM61.7672 28.8906C60.9625 28.8906 60.2125 28.4609 60.2125 27.5547C60.2125 26.8438 60.6813 26.3438 61.7359 26.3438H63.6344V27.2734C63.6344 28.2266 62.8297 28.8906 61.7672 28.8906ZM67.0156 30H68.6094V25.0312C68.6094 23.9219 69.0703 23.0469 70.4922 23.0469C70.7578 23.0469 71.0469 23.0625 71.1953 23.0938V21.6797C71.0312 21.6562 70.8438 21.6406 70.6406 21.6406C69.4844 21.6406 68.8672 22.3125 68.6484 22.8125H68.5938V21.7656H67.0156V30ZM75.1391 21.6328C73.1 21.6328 71.8969 23.2266 71.8969 25.5078V26.2422C71.8969 28.5703 73.0375 30.1172 75.1391 30.1172C76.2484 30.1172 77.1156 29.5938 77.5531 28.75H77.6V30H79.1312V18.7734H77.5531V22.9219H77.4984C77.1 22.1797 76.2406 21.6328 75.1391 21.6328ZM75.4828 22.9609C76.7719 22.9609 77.5687 23.9766 77.5687 25.5625V26.2031C77.5687 27.8672 76.7797 28.7891 75.4984 28.7891C74.3344 28.7891 73.4984 27.9297 73.4984 26.1953V25.5625C73.4984 23.8203 74.3344 22.9609 75.4828 22.9609ZM87.6281 30V19.3359H86.1125C85.4328 19.6953 84.1594 20.4844 83.5031 20.9531V22.5234C84.1125 22.1016 85.5344 21.2109 85.9953 20.9609H86.0344V30H87.6281ZM89.3938 27.5469C89.3938 28.1016 89.8391 28.5547 90.3938 28.5547C90.9484 28.5547 91.4016 28.1016 91.4016 27.5469C91.4016 27 90.9484 26.5469 90.3938 26.5469C89.8391 26.5469 89.3938 27 89.3938 27.5469ZM89.3938 22.0312C89.3938 22.5859 89.8391 23.0312 90.3938 23.0312C90.9484 23.0312 91.4016 22.5859 91.4016 22.0312C91.4016 21.4766 90.9484 21.0312 90.3938 21.0312C89.8391 21.0312 89.3938 21.4766 89.3938 22.0312ZM97.0813 30V19.3359H95.5656C94.8859 19.6953 93.6125 20.4844 92.9563 20.9531V22.5234C93.5656 22.1016 94.9875 21.2109 95.4484 20.9609H95.4875V30H97.0813Z" fill="black"/>
</g>
<defs>
<clipPath id="clip0">
<rect width="119.664" height="40" fill="white"/>
</clipPath>
</defs>
</svg>
